images/logotype/logotype-mobile.svg

<svg width="226" height="30" viewBox="0 0 226 30" fill="none" xmlns="http://www.w3.org/2000/svg">
<path d="M3.49444 9.66752L0 13.1573L3.49444 16.6471L6.98887 13.1573L3.49444 9.66752Z" fill="white"/>
<path d="M218.806 9.68188L215.311 13.1703L218.806 16.6588L222.302 13.1703L218.806 9.68188Z" fill="white"/>
<path d="M28.6245 13.2823H29.9054V8.19911H31.9069V6.93081H28.6245V13.2823Z" fill="#636466"/>
<path d="M37.7314 14.2111V6.47142C37.7257 5.95499 37.5769 5.4502 37.3013 5.01304C37.0257 4.57588 36.6342 4.22341 36.1702 3.99472C36.3575 4.37035 36.4567 4.78356 36.4604 5.20311V12.9827C36.4661 13.3912 36.379 13.7957 36.2056 14.1658C36.0323 14.5359 35.7773 14.8621 35.4596 15.1199C35.7676 15.4114 36.0146 15.761 36.1864 16.1484C36.3582 16.5358 36.4513 16.9533 36.4604 17.3768V25.9654C36.4501 26.6994 36.154 27.4007 35.6348 27.9207C35.1155 28.4408 34.4138 28.7388 33.6783 28.7517H25.382V29.96H34.9493C35.6848 29.9471 36.3865 29.6491 36.9057 29.1291C37.425 28.6091 37.7211 27.9078 37.7314 27.1738V18.6152C37.7234 18.1915 37.6308 17.7736 37.4589 17.3861C37.2871 16.9985 37.0395 16.6491 36.7306 16.3582C37.0485 16.0984 37.3035 15.7705 37.4768 15.3987C37.6501 15.027 37.7371 14.621 37.7314 14.2111Z" fill="#636466"/>
<path d="M28.6245 24.1778H29.9054V19.0646H31.9069V17.7863H28.6245V24.1778Z" fill="#636466"/>
<path d="M48.8198 24.1778H50.0908V8.19911H52.0923V6.93081H48.8198V24.1778Z" fill="#636466"/>
<path d="M56.3555 3.99472C56.5508 4.36783 56.6538 4.78217 56.6557 5.20311V25.9654C56.6454 26.7011 56.3479 27.4038 55.8265 27.9242C55.3051 28.4445 54.6009 28.7413 53.8636 28.7517H47.0885C46.6639 28.7461 46.2463 28.6436 45.8676 28.4521C46.1035 28.908 46.461 29.2901 46.9007 29.5562C47.3404 29.8223 47.8452 29.9621 48.3594 29.96H55.1446C55.8801 29.9471 56.5818 29.6491 57.1011 29.1291C57.6203 28.6091 57.9164 27.9078 57.9267 27.1738V6.47142C57.9213 5.95368 57.7714 5.44769 57.4939 5.01022C57.2163 4.57275 56.8222 4.2211 56.3555 3.99472Z" fill="#636466"/>
<path d="M69.0051 13.2823H70.2861V8.19911H72.2876V6.93081H69.0051V13.2823Z" fill="#636466"/>
<path d="M76.5008 18.795C76.9708 18.5739 77.3675 18.2232 77.6441 17.7843C77.9208 17.3454 78.0658 16.8367 78.062 16.3183V6.47142C78.0573 5.95603 77.9099 5.45198 77.6362 5.01492C77.3625 4.57786 76.973 4.22479 76.5108 3.99472C76.6985 4.37735 76.7977 4.79712 76.8011 5.22308V15.0799C76.8031 15.6005 76.6551 16.1108 76.3748 16.5499C76.0944 16.989 75.6936 17.3384 75.2199 17.5566L77.1113 28.7616H73.6487L73.8588 29.96H78.3823L76.5008 18.795Z" fill="#636466"/>
<path d="M70.7465 17.7863H69.0051V28.7317H65.7627V30H70.2861V19.0646H70.9566L70.7465 17.7863Z" fill="#636466"/>
<path d="M88.6 24.1778H89.871V8.19911H91.8725V6.93081H88.6V24.1778Z" fill="#636466"/>
<path d="M96.1357 3.99472C96.3265 4.36952 96.4292 4.78278 96.436 5.20311V25.9654C96.4256 26.7011 96.1281 27.4038 95.6067 27.9242C95.0853 28.4445 94.3811 28.7413 93.6438 28.7517H86.8687C86.4441 28.7461 86.0265 28.6436 85.6478 28.4521C85.8837 28.908 86.2412 29.2901 86.6809 29.5562C87.1206 29.8223 87.6254 29.9621 88.1397 29.96H94.9148C95.6521 29.9497 96.3563 29.6528 96.8777 29.1325C97.3991 28.6122 97.6966 27.9095 97.7069 27.1738V6.47142C97.7015 5.95368 97.5516 5.44769 97.2741 5.01022C96.9966 4.57275 96.6024 4.2211 96.1357 3.99472Z" fill="#636466"/>
<path d="M108.785 24.1778H110.066V8.19911H112.068V6.93081H108.785V24.1778Z" fill="#636466"/>
<path d="M116.331 3.99472C116.518 4.37035 116.618 4.78356 116.621 5.20311V25.9654C116.611 26.6994 116.315 27.4007 115.796 27.9207C115.276 28.4408 114.575 28.7388 113.839 28.7517H105.543V29.96H115.09C115.826 29.9497 116.53 29.6525 117.049 29.1319C117.569 28.6113 117.864 27.9086 117.872 27.1738V6.47142C117.868 5.95708 117.723 5.45374 117.451 5.01678C117.179 4.57982 116.791 4.22617 116.331 3.99472Z" fill="#636466"/>
<path d="M129.201 3.68514V28.7317H125.958V30H130.482V3.68514H129.201Z" fill="#636466"/>
<path d="M149.326 3.68514V28.7317H145.703L146.074 30H150.597V3.68514H149.326Z" fill="#636466"/>
<path d="M141.49 17.2271V28.7317H138.238V30H142.761V21.6511L141.49 17.2271Z" fill="#636466"/>
<path d="M161.215 19.0646H164.958V17.7863H159.954C159.53 17.7838 159.113 17.6848 158.733 17.4967C158.957 17.9645 159.309 18.3598 159.748 18.6372C160.187 18.9145 160.696 19.0627 161.215 19.0646Z" fill="#636466"/>
<path d="M162.946 20.7524L161.676 21.052V24.1778H162.946V20.7524Z" fill="#636466"/>
<path d="M169.221 3.99472C169.409 4.37035 169.508 4.78356 169.511 5.20311V10.546L166.229 11.305V12.8729L170.782 11.8143V6.47142C170.777 5.95499 170.628 5.4502 170.352 5.01304C170.077 4.57588 169.685 4.22341 169.221 3.99472Z" fill="#636466"/>
<path d="M169.221 14.8502C169.41 15.2254 169.509 15.6389 169.512 16.0586V25.9654C169.501 26.7011 169.204 27.4038 168.682 27.9241C168.161 28.4445 167.457 28.7413 166.719 28.7517H159.944C159.523 28.747 159.108 28.6445 158.733 28.4521C158.967 28.908 159.322 29.2903 159.76 29.5566C160.199 29.8228 160.702 29.9625 161.215 29.96H168C168.736 29.9471 169.438 29.6491 169.957 29.1291C170.476 28.6091 170.772 27.9078 170.782 27.1738V17.3369C170.78 16.8185 170.632 16.3111 170.357 15.8719C170.081 15.4326 169.688 15.0788 169.221 14.8502Z" fill="#636466"/>
<path d="M161.676 6.93081V13.2823H162.947V8.19911H164.958V6.93081H161.676Z" fill="#636466"/>
<path d="M182.281 17.7863H181.871V28.7317H178.618V30H183.142V20.5226L182.281 17.7863Z" fill="#636466"/>
<path d="M191.538 3.68514H189.857L186.054 15.5293L190.267 28.7317H186.594L186.945 29.8502L186.985 30H191.538L187.325 16.8076L191.538 3.68514Z" fill="#636466"/>
<path d="M202.176 3.68514V28.7317H198.924V30H203.447V3.68514H202.176Z" fill="#636466"/>
<path d="M224.726 15.5912L221.231 19.0797L222.504 20.3508L226 16.8623L224.726 15.5912Z" fill="#636466"/>
<path d="M9.42279 15.5711L5.92702 19.0596L7.20078 20.3307L10.6965 16.8422L9.42279 15.5711Z" fill="#636466"/>
<path d="M34.0286 10.526C34.0342 10.9345 33.9471 11.339 33.7738 11.7091C33.6005 12.0792 33.3454 12.4054 33.0278 12.6631C33.3358 12.9547 33.5828 13.3043 33.7546 13.6917C33.9263 14.0791 34.0195 14.4966 34.0286 14.9201V23.5286C34.0183 24.2627 33.7222 24.9639 33.2029 25.484C32.6837 26.004 31.982 26.302 31.2464 26.3149H21.6892V6.10352e-05H31.2565C31.9927 0.00792858 32.6962 0.304637 33.215 0.826033C33.7337 1.34743 34.026 2.05162 34.0286 2.78634V10.526ZM29.4751 4.534H26.2026V10.8855H29.4851L29.4751 4.534ZM29.4751 15.3895H26.2026V21.781H29.4851L29.4751 15.3895Z" fill="white"/>
<path d="M51.4418 7.90633e-05C52.1815 0.00271066 52.8901 0.297109 53.4132 0.819068C53.9362 1.34103 54.2313 2.0482 54.2339 2.78636V23.5286C54.2236 24.2644 53.9261 24.9671 53.4047 25.4874C52.8833 26.0077 52.1791 26.3046 51.4418 26.3149H44.6666C43.9269 26.3123 43.2183 26.0179 42.6952 25.4959C42.1722 24.974 41.8772 24.2668 41.8745 23.5286V2.78636C41.8732 2.42009 41.9445 2.05718 42.0844 1.71854C42.2242 1.37989 42.4298 1.07221 42.6894 0.813218C42.9489 0.554225 43.2572 0.34904 43.5966 0.209483C43.9359 0.0699274 44.2996 -0.00124084 44.6666 7.90633e-05H51.4418ZM49.6704 4.51405H46.398V21.761H49.6704V4.51405Z" fill="white"/>
<path d="M70.166 26.3149L68.3246 15.3296H66.5833V26.3149H62.0499V6.10352e-05H71.6171C72.3515 0.00796502 73.053 0.305322 73.5685 0.827282C74.0841 1.34924 74.3719 2.05345 74.3692 2.78634V12.6332C74.3691 13.1546 74.2191 13.6651 73.9371 14.1041C73.6551 14.5431 73.2528 14.8921 72.778 15.1099L74.6694 26.3149H70.166ZM69.8658 4.51403H66.5833V10.8655H69.8658V4.51403Z" fill="white"/>
<path d="M91.222 7.90633e-05C91.9617 0.00271066 92.6704 0.297109 93.1934 0.819068C93.7165 1.34103 94.0115 2.0482 94.0141 2.78636V23.5286C94.0038 24.2644 93.7063 24.9671 93.1849 25.4874C92.6635 26.0077 91.9593 26.3046 91.222 26.3149H84.4469C83.7072 26.3123 82.9985 26.0179 82.4754 25.4959C81.9524 24.974 81.6574 24.2668 81.6547 23.5286V2.78636C81.6534 2.42009 81.7247 2.05718 81.8646 1.71854C82.0044 1.37989 82.2101 1.07221 82.4696 0.813218C82.7291 0.554225 83.0375 0.34904 83.3768 0.209483C83.7162 0.0699274 84.0798 -0.00124084 84.4469 7.90633e-05H91.222ZM89.4507 4.51405H86.1782V21.761H89.4507V4.51405Z" fill="white"/>
<path d="M111.417 6.10352e-05C112.155 0.0053167 112.861 0.300873 113.382 0.82255C113.903 1.34423 114.197 2.0499 114.199 2.78634V23.5286C114.189 24.2627 113.893 24.9639 113.374 25.484C112.855 26.004 112.153 26.302 111.417 26.3149H101.85V6.10352e-05H111.417ZM109.646 4.51403H106.364V21.761H109.646V4.51403Z" fill="white"/>
<path d="M122.266 6.10352e-05H126.789V26.3149H122.266V6.10352e-05Z" fill="white"/>
<path d="M146.894 6.10352e-05V26.3149H142.381L139.108 14.8103V26.3149H134.585V6.10352e-05H139.068L142.381 10.7857V6.10352e-05H146.894Z" fill="white"/>
<path d="M164.308 10.8656C164.676 10.8629 165.04 10.9326 165.381 11.0707C165.722 11.2088 166.033 11.4126 166.295 11.6704C166.557 11.9282 166.765 12.235 166.909 12.5733C167.052 12.9115 167.127 13.2746 167.13 13.6418V23.5286C167.119 24.2627 166.823 24.964 166.304 25.484C165.785 26.004 165.083 26.302 164.348 26.3149H157.522C156.784 26.3097 156.078 26.0141 155.557 25.4924C155.037 24.9708 154.743 24.2651 154.74 23.5286V18.1159L159.254 17.0673V21.761H162.536V15.3695H157.532C157.167 15.3709 156.804 15.3 156.466 15.1609C156.128 15.0218 155.821 14.8174 155.562 14.5593C155.304 14.3013 155.099 13.9947 154.959 13.6573C154.82 13.3198 154.749 12.9582 154.75 12.5932V2.78635C154.749 2.42176 154.82 2.06048 154.958 1.72315C155.097 1.38581 155.301 1.07902 155.558 0.820285C155.815 0.561554 156.121 0.355954 156.458 0.215221C156.796 0.0744885 157.157 0.00138058 157.522 7.14658e-05H164.308C164.676 -0.00255984 165.042 0.0674947 165.384 0.206217C165.725 0.34494 166.036 0.549601 166.298 0.808462C166.561 1.06732 166.769 1.37529 166.912 1.7147C167.054 2.05412 167.128 2.41829 167.13 2.78635V8.11923L162.576 9.11789V4.51404H159.294V10.8656H164.308Z" fill="white"/>
<path d="M183.632 13.1225L187.845 26.3149H183.292V26.1651L179.899 15.3695H179.489V26.3549H174.966V6.10352e-05H179.489V10.8655H179.829L183.252 6.10352e-05H187.845L183.632 13.1225Z" fill="white"/>
<path d="M195.231 6.10352e-05H199.754V26.3149H195.231V6.10352e-05Z" fill="white"/>
</svg>

<svg width="226" height="30" fill="none" xmlns="http://www.w3.org/2000/svg"><path d="M3.5 9.67 0 13.16l3.5 3.49 3.49-3.5-3.5-3.48ZM218.8 9.68l-3.49 3.49 3.5 3.49 3.5-3.49-3.5-3.49Z" fill="#fff"/><path d="M28.62 13.28h1.29V8.2h2V6.93h-3.29v6.35ZM37.73 14.21V6.47A2.8 2.8 0 0 0 36.17 4c.19.38.29.8.29 1.21v7.78a2.7 2.7 0 0 1-1 2.14 3.2 3.2 0 0 1 1 2.26v8.59a2.82 2.82 0 0 1-2.78 2.78h-8.3v1.21h9.57a2.84 2.84 0 0 0 2.78-2.79v-8.55a3.18 3.18 0 0 0-1-2.26 2.73 2.73 0 0 0 1-2.15Z" fill="#636466"/><path d="M28.62 24.18h1.29v-5.12h2V17.8h-3.29v6.39ZM48.82 24.18h1.27V8.2h2V6.93h-3.27v17.25Z" fill="#636466"/><path d="M56.36 4c.2.37.3.78.3 1.2v20.77a2.82 2.82 0 0 1-2.8 2.78H47.1c-.43 0-.84-.1-1.22-.3a2.79 2.79 0 0 0 2.49 1.51h6.78a2.84 2.84 0 0 0 2.79-2.79V6.47A2.78 2.78 0 0 0 56.36 4ZM69 13.28h1.29V8.2h2V6.93H69v6.35ZM76.5 18.8a2.72 2.72 0 0 0 1.56-2.48V6.47A2.8 2.8 0 0 0 76.51 4c.19.39.29.8.3 1.23v9.86a2.71 2.71 0 0 1-1.59 2.48l1.9 11.2h-3.47l.2 1.2h4.53L76.5 18.8ZM70.75 17.79H69v10.94h-3.25V30h4.53V19.06h.67l-.21-1.27ZM88.6 24.18h1.27V8.2h2V6.93H88.6v17.25Z" fill="#636466"/><path d="M96.14 4c.19.37.29.78.3 1.2v20.77a2.82 2.82 0 0 1-2.8 2.78h-6.77c-.43 0-.84-.1-1.22-.3a2.79 2.79 0 0 0 2.49 1.51h6.77a2.84 2.84 0 0 0 2.8-2.79V6.47A2.78 2.78 0 0 0 96.14 4ZM108.78 24.18h1.29V8.2h2V6.93h-3.28v17.25Z" fill="#636466"/><path d="M116.33 4c.19.37.29.78.3 1.2v20.77a2.82 2.82 0 0 1-2.8 2.78h-8.29v1.21h9.55a2.82 2.82 0 0 0 2.78-2.79V6.47A2.8 2.8 0 0 0 116.33 4ZM129.2 3.69v25.04h-3.24V30h4.52V3.69h-1.28ZM149.33 3.69v25.04h-3.63l.37 1.27h4.53V3.69h-1.27ZM141.49 17.23v11.5h-3.25V30h4.52v-8.35l-1.27-4.42ZM161.22 19.06h3.74V17.8h-5c-.43 0-.85-.1-1.23-.3a2.76 2.76 0 0 0 2.49 1.57ZM162.95 20.75l-1.27.3v3.13h1.27v-3.43ZM169.22 4c.19.37.29.78.3 1.2v5.35l-3.3.75v1.57l4.56-1.06V6.47A2.78 2.78 0 0 0 169.22 4Z" fill="#636466"/><path d="M169.22 14.85c.19.38.29.79.3 1.2v9.92a2.82 2.82 0 0 1-2.8 2.78h-6.78c-.42 0-.83-.1-1.2-.3a2.77 2.77 0 0 0 2.47 1.51H168a2.84 2.84 0 0 0 2.78-2.79v-9.83a2.78 2.78 0 0 0-1.56-2.49ZM161.68 6.93v6.35h1.27V8.2h2V6.93h-3.27ZM182.28 17.79h-.4v10.94h-3.26V30h4.52v-9.48l-.86-2.73ZM191.54 3.69h-1.68l-3.8 11.84 4.2 13.2h-3.67l.35 1.12.05.15h4.55l-4.22-13.2 4.22-13.11ZM202.18 3.69v25.04h-3.26V30h4.53V3.69h-1.27ZM224.73 15.6l-3.5 3.48 1.27 1.27 3.5-3.49-1.27-1.27ZM9.42 15.57l-3.5 3.49 1.28 1.27 3.5-3.49-1.28-1.27Z" fill="#636466"/><path d="M34.03 10.53a2.7 2.7 0 0 1-1 2.13 3.2 3.2 0 0 1 1 2.26v8.6a2.82 2.82 0 0 1-2.78 2.8h-9.56V0h9.57a2.8 2.8 0 0 1 2.77 2.79v7.74Zm-4.55-6H26.2v6.36h3.29l-.01-6.36Zm0 10.86H26.2v6.4h3.29l-.01-6.4ZM51.44 0a2.8 2.8 0 0 1 2.8 2.79v20.74a2.82 2.82 0 0 1-2.8 2.78h-6.77a2.8 2.8 0 0 1-2.8-2.78V2.79A2.77 2.77 0 0 1 44.67 0h6.77Zm-1.77 4.51H46.4v17.25h3.27V4.51ZM70.17 26.31l-1.85-10.98h-1.74v10.98h-4.53V0h9.57a2.78 2.78 0 0 1 2.75 2.79v9.84a2.72 2.72 0 0 1-1.6 2.48l1.9 11.2h-4.5Zm-.3-21.8h-3.29v6.36h3.29V4.5ZM91.22 0a2.8 2.8 0 0 1 2.8 2.79v20.74a2.82 2.82 0 0 1-2.8 2.78h-6.77a2.8 2.8 0 0 1-2.8-2.78V2.79A2.77 2.77 0 0 1 84.45 0h6.77Zm-1.77 4.51h-3.27v17.25h3.27V4.51ZM111.42 0a2.8 2.8 0 0 1 2.78 2.79v20.74a2.82 2.82 0 0 1-2.78 2.78h-9.57V0h9.57Zm-1.77 4.51h-3.29v17.25h3.29V4.51ZM122.27 0h4.52v26.31h-4.52V0ZM146.9 0v26.31h-4.52l-3.27-11.5v11.5h-4.53V0h4.49l3.31 10.79V0h4.51ZM164.3 10.87a2.8 2.8 0 0 1 2.83 2.77v9.89a2.83 2.83 0 0 1-2.78 2.78h-6.83a2.8 2.8 0 0 1-2.78-2.78v-5.41l4.51-1.05v4.7h3.29v-6.4h-5a2.78 2.78 0 0 1-2.79-2.78V2.8A2.79 2.79 0 0 1 157.52 0h6.79a2.81 2.81 0 0 1 2.82 2.79v5.33l-4.55 1v-4.6h-3.29v6.35h5.02ZM183.63 13.12l4.22 13.2h-4.56v-.15l-3.4-10.8h-.4v10.98h-4.52V0h4.52v10.87h.34L183.25 0h4.6l-4.22 13.12ZM195.23 0h4.52v26.31h-4.52V0Z" fill="#fff"/></svg>
